X: 08052
T: JACK and PEGGY'S JIG
C: Bob McQuillen 2 Apr 91
B: Bob's Note Book 8 #52
%R: jig
Z: 2021 John Chambers <jc:trillian.mit.edu>
M: 6/8
L: 1/8
K: G
e \
| ded BAG | EDE G2E | DEG GBd | edB dge |\
| ded BAG | EDE G2E | DGB dBA | BGG G2 :|
|: d \
| edB GBd | edB d2d | ede geg | age ege |\
| deg e2g | age d2g | ged BdB | AGG G2 :|
%%begintext align
%% The last time I got down Philly way, I just happened to
%% get there at the same time that Jack Crowley and his
%% lovely wife, Peggy, were throwing a party - They
%% were so nice to me that I thought they needed
%% this jig to thank them for a great evening - see
%% how this sounds on your banjo, Jack - I hope it's OK!
%%endtext

%%sep 1 1 500

%%sep 1 1 500

